X:955
T: Tinker's Bib
T: Pr\'aiscin an Tinc\'eara
S: B.Breathnach:"Ceol Rince na hEireann" IV/192
Z: B.Black
L: 1/8
M: 4/4
R: reel
K: A
af|eA (3AAA eAfA|eA (3AAA fecA|Bcdf bBBA|Bcde fagf|
eA (3AAA eAfA|eA (3AAA fecA|Bcde fagf|edcB A2 :|
(3efg|aA (3AAA aAaA|aA (3AAA fece|bB (3BBB bBbB|\
bB (3BBB bafg|
aA (3AAA aAaA|aA (3AAA fecA|Bcde fagf|edcB A2 :|
